X:1
T:Captain Wake
T:Captain White's Jig (1)
M:6/8
L:1/8
R:Jig
S:John Rook music manuscript collection (1849, Waverly, Cumbria)
Z:AK/Fiddler's Companion
K:D
ODFA d2f|edc B2d|A2d F2A|GFG E2D|
DFA d2f|edc B2d|A2d Fd2|ABc d2:|
|:f|efe A2f|efe a2f|e2d c2B|AcB A2f|
efe A2f|efe a2f|efd cdB|ABA GFEO:|
D2f fef|d2A AGA|D2f fef|gfg e3|
D2f fef|d2A A2c|Bcd e2d|cdB AGF:|]

